src/assets/logo/aerena-text.svg

<svg xmlns="http://www.w3.org/2000/svg" width="3902" height="1000" fill="none" xmlns:v="https://vecta.io/nano"><g clip-path="url(#C)"><use href="#D" fill="#fff"/><use href="#D" fill="url(#A)"/><use href="#E" fill="#fff"/><use href="#E" fill="url(#A)"/></g><use href="#F" fill="#fff"/><use href="#F" fill="url(#B)"/><defs><linearGradient id="A" x1="264.298" y1="217.504" x2="930.676" y2="910.745" gradientUnits="userSpaceOnUse"><stop stop-color="#ab750f"/><stop offset=".484" stop-color="#d8a956"/><stop offset="1" stop-color="#ab750f"/></linearGradient><linearGradient id="B" x1="1935.04" y1="342.367" x2="2078.61" y2="1057.82" gradientUnits="userSpaceOnUse"><stop stop-color="#ab750f"/><stop offset=".484" stop-color="#d8a956"/><stop offset="1" stop-color="#ab750f"/></linearGradient><clipPath id="C"><path fill="#fff" d="M0 0h1000v1000H0z"/></clipPath><path id="D" d="M270 0h420l310 860-310 140-160-680-95.845 272.4 108.372-44.509 49.286 209.465L0 1000l245.916-702.617L455 145l-169.857 40.305 46.101-131.716L270 0z"/><path id="E" d="M952.249 609.578L880.044 409.267L1000 360L952.249 609.578Z"/><path id="F" d="M1534.29 779l-21.43-89.048h-135.24L1359.52 779h-140l145.24-519.524-11.43-38.571H1550L1709.05 779h-174.76zm-95.24-394.286l-41.91 208.096h92.38l-50.47-208.096zM2065.45 779h-337.62V220.905h330.48l-9.53 112.381-163.33-4.762v107.619h128.57v111.428l-128.57-9.523v126.666l180-4.762V779zm199.91-185.714V779h-158.1V220.905h62.86c15.24 0 37.94-.635 68.09-1.905 30.16-1.587 55.08-2.381 74.77-2.381 68.57 0 119.68 15.079 153.33 45.238 33.97 30.159 50.95 76.349 50.95 138.572 0 36.825-8.09 69.523-24.28 98.095-15.88 28.571-36.99 51.27-63.34 68.095 14.29 3.492 26.51 11.587 36.67 24.286 10.48 12.698 18.57 27.778 24.29 45.238 5.71 17.143 10.63 34.603 14.76 52.381a961.15 961.15 0 0 0 14.76 51.905c5.71 17.142 11.9 30 18.57 38.571h-175.71c-3.5-4.444-6.19-16.825-8.1-37.143-1.9-20.635-4.6-45.238-8.09-73.809-3.18-28.889-7.78-53.016-13.81-72.381h-2.38-19.53l-17.62-.953-16.19-.952c-5.4-.318-9.36-.476-11.9-.476zm0-88.572h15.24c7.93 0 14.6-.317 20-.952 5.39-.635 11.26-1.746 17.61-3.333 6.67-1.905 12.07-4.762 16.19-8.572 4.45-3.809 8.58-8.73 12.39-14.762s6.66-13.809 8.57-23.333c1.9-9.524 2.85-20.635 2.85-33.333V382.81c0-27.62-7.3-46.826-21.9-57.619-14.29-11.112-34.92-16.667-61.91-16.667h-9.04v196.19zM2906.69 779h-337.62V220.905h330.48l-9.53 112.381-163.33-4.762v107.619h128.57v111.428l-128.57-9.523v126.666l180-4.762V779zm194.67 0h-151.43V265.667l-23.33-44.762h175.23l87.62 180.952 83.81 180.476-23.33-211.904V220.905h151.9V779H3256.6l-113.34-220.476-70-138.095 28.1 182.857V779zm638.56 0l-21.43-89.048h-135.23L3565.16 779h-140l145.24-519.524-11.43-38.571h196.67L3914.68 779h-174.76zm-95.24-394.286l-41.9 208.096h92.38l-50.48-208.096z"/></defs></svg>

<svg width="3902" height="1000" viewBox="0 0 3902 1000" fill="none" xmlns="http://www.w3.org/2000/svg">
<g id="aerena-text">
<g id="logo" clip-path="url(#clip0_125_42)">
<g id="Union">
<path d="M270 0H690L1000 860L690 1000L530 320L434.155 592.4L542.527 547.891L591.813 757.356L0 1000L245.916 297.383L455 145L285.143 185.305L331.244 53.5887L270 0Z" fill="white"/>
<path d="M270 0H690L1000 860L690 1000L530 320L434.155 592.4L542.527 547.891L591.813 757.356L0 1000L245.916 297.383L455 145L285.143 185.305L331.244 53.5887L270 0Z" fill="url(#paint0_linear_125_42)"/>
<path d="M952.249 609.578L880.044 409.267L1000 360L952.249 609.578Z" fill="white"/>
<path d="M952.249 609.578L880.044 409.267L1000 360L952.249 609.578Z" fill="url(#paint1_linear_125_42)"/>
</g>
</g>
<g id="AERENA">
<path d="M1534.29 779L1512.86 689.952H1377.62L1359.52 779H1219.52L1364.76 259.476L1353.33 220.905H1550L1709.05 779H1534.29ZM1439.05 384.714L1397.14 592.81H1489.52L1439.05 384.714ZM2065.45 779H1727.83V220.905H2058.31L2048.78 333.286L1885.45 328.524V436.143H2014.02V547.571L1885.45 538.048V664.714L2065.45 659.952V779ZM2265.36 593.286V779H2107.26V220.905H2170.12C2185.36 220.905 2208.06 220.27 2238.21 219C2268.37 217.413 2293.29 216.619 2312.98 216.619C2381.55 216.619 2432.66 231.698 2466.31 261.857C2500.28 292.016 2517.26 338.206 2517.26 400.429C2517.26 437.254 2509.17 469.952 2492.98 498.524C2477.1 527.095 2455.99 549.794 2429.64 566.619C2443.93 570.111 2456.15 578.206 2466.31 590.905C2476.79 603.603 2484.88 618.683 2490.6 636.143C2496.31 653.286 2501.23 670.746 2505.36 688.524C2509.8 705.984 2514.72 723.286 2520.12 740.429C2525.83 757.571 2532.02 770.429 2538.69 779H2362.98C2359.48 774.556 2356.79 762.175 2354.88 741.857C2352.98 721.222 2350.28 696.619 2346.79 668.048C2343.61 639.159 2339.01 615.032 2332.98 595.667C2332.34 595.667 2331.55 595.667 2330.6 595.667C2324.56 595.667 2318.06 595.667 2311.07 595.667C2304.4 595.349 2298.53 595.032 2293.45 594.714C2288.37 594.397 2282.98 594.079 2277.26 593.762C2271.86 593.444 2267.9 593.286 2265.36 593.286ZM2265.36 504.714H2280.6C2288.53 504.714 2295.2 504.397 2300.6 503.762C2305.99 503.127 2311.86 502.016 2318.21 500.429C2324.88 498.524 2330.28 495.667 2334.4 491.857C2338.85 488.048 2342.98 483.127 2346.79 477.095C2350.6 471.063 2353.45 463.286 2355.36 453.762C2357.26 444.238 2358.21 433.127 2358.21 420.429V382.81C2358.21 355.19 2350.91 335.984 2336.31 325.191C2322.02 314.079 2301.39 308.524 2274.4 308.524H2265.36V504.714ZM2906.69 779H2569.07V220.905H2899.55L2890.02 333.286L2726.69 328.524V436.143H2855.26V547.571L2726.69 538.048V664.714L2906.69 659.952V779ZM3101.36 779H2949.93V265.667L2926.6 220.905H3101.83L3189.45 401.857L3273.26 582.333L3249.93 370.429V220.905H3401.83V779H3256.6L3143.26 558.524L3073.26 420.429L3101.36 603.286V779ZM3739.92 779L3718.49 689.952H3583.26L3565.16 779H3425.16L3570.4 259.476L3558.97 220.905H3755.64L3914.68 779H3739.92ZM3644.68 384.714L3602.78 592.81H3695.16L3644.68 384.714Z" fill="white"/>
<path d="M1534.29 779L1512.86 689.952H1377.62L1359.52 779H1219.52L1364.76 259.476L1353.33 220.905H1550L1709.05 779H1534.29ZM1439.05 384.714L1397.14 592.81H1489.52L1439.05 384.714ZM2065.45 779H1727.83V220.905H2058.31L2048.78 333.286L1885.45 328.524V436.143H2014.02V547.571L1885.45 538.048V664.714L2065.45 659.952V779ZM2265.36 593.286V779H2107.26V220.905H2170.12C2185.36 220.905 2208.06 220.27 2238.21 219C2268.37 217.413 2293.29 216.619 2312.98 216.619C2381.55 216.619 2432.66 231.698 2466.31 261.857C2500.28 292.016 2517.26 338.206 2517.26 400.429C2517.26 437.254 2509.17 469.952 2492.98 498.524C2477.1 527.095 2455.99 549.794 2429.64 566.619C2443.93 570.111 2456.15 578.206 2466.31 590.905C2476.79 603.603 2484.88 618.683 2490.6 636.143C2496.31 653.286 2501.23 670.746 2505.36 688.524C2509.8 705.984 2514.72 723.286 2520.12 740.429C2525.83 757.571 2532.02 770.429 2538.69 779H2362.98C2359.48 774.556 2356.79 762.175 2354.88 741.857C2352.98 721.222 2350.28 696.619 2346.79 668.048C2343.61 639.159 2339.01 615.032 2332.98 595.667C2332.34 595.667 2331.55 595.667 2330.6 595.667C2324.56 595.667 2318.06 595.667 2311.07 595.667C2304.4 595.349 2298.53 595.032 2293.45 594.714C2288.37 594.397 2282.98 594.079 2277.26 593.762C2271.86 593.444 2267.9 593.286 2265.36 593.286ZM2265.36 504.714H2280.6C2288.53 504.714 2295.2 504.397 2300.6 503.762C2305.99 503.127 2311.86 502.016 2318.21 500.429C2324.88 498.524 2330.28 495.667 2334.4 491.857C2338.85 488.048 2342.98 483.127 2346.79 477.095C2350.6 471.063 2353.45 463.286 2355.36 453.762C2357.26 444.238 2358.21 433.127 2358.21 420.429V382.81C2358.21 355.19 2350.91 335.984 2336.31 325.191C2322.02 314.079 2301.39 308.524 2274.4 308.524H2265.36V504.714ZM2906.69 779H2569.07V220.905H2899.55L2890.02 333.286L2726.69 328.524V436.143H2855.26V547.571L2726.69 538.048V664.714L2906.69 659.952V779ZM3101.36 779H2949.93V265.667L2926.6 220.905H3101.83L3189.45 401.857L3273.26 582.333L3249.93 370.429V220.905H3401.83V779H3256.6L3143.26 558.524L3073.26 420.429L3101.36 603.286V779ZM3739.92 779L3718.49 689.952H3583.26L3565.16 779H3425.16L3570.4 259.476L3558.97 220.905H3755.64L3914.68 779H3739.92ZM3644.68 384.714L3602.78 592.81H3695.16L3644.68 384.714Z" fill="url(#paint2_linear_125_42)"/>
</g>
</g>
<defs>
<linearGradient id="paint0_linear_125_42" x1="264.298" y1="217.504" x2="930.676" y2="910.745" gradientUnits="userSpaceOnUse">
<stop stop-color="#AB750F"/>
<stop offset="0.484" stop-color="#D8A956"/>
<stop offset="1" stop-color="#AB750F"/>
</linearGradient>
<linearGradient id="paint1_linear_125_42" x1="264.298" y1="217.504" x2="930.676" y2="910.745" gradientUnits="userSpaceOnUse">
<stop stop-color="#AB750F"/>
<stop offset="0.484" stop-color="#D8A956"/>
<stop offset="1" stop-color="#AB750F"/>
</linearGradient>
<linearGradient id="paint2_linear_125_42" x1="1935.04" y1="342.367" x2="2078.61" y2="1057.82" gradientUnits="userSpaceOnUse">
<stop stop-color="#AB750F"/>
<stop offset="0.484" stop-color="#D8A956"/>
<stop offset="1" stop-color="#AB750F"/>
</linearGradient>
<clipPath id="clip0_125_42">
<rect width="1000" height="1000" fill="white"/>
</clipPath>
</defs>
</svg>
